img/logo-footer.svg

<svg width="222" height="43" viewBox="0 0 222 43" fill="none" xmlns="http://www.w3.org/2000/svg">
<path d="M40.0019 19.9721V18.9281C39.6214 8.24959 30.6602 0.583496 19.9117 0.583496C8.94123 0.583496 0 9.54582 0 20.5422C0 31.5385 8.94123 40.5008 19.9117 40.5008C25.2384 40.5008 30.0577 38.4032 33.6406 35.0026L40.0317 42.97L40.0019 21.7618C40.0336 21.3804 40.0019 20.9818 40.0019 20.5687C40.0019 20.5051 40.0019 20.0675 40.0019 19.9721ZM19.9117 33.9539C12.5558 33.9539 6.56324 27.9472 6.56324 20.5739C6.56324 13.2007 12.5558 7.19401 19.9117 7.19401C27.2676 7.19401 33.2601 13.2007 33.2601 20.5739C33.2601 27.9472 27.2676 33.9539 19.9117 33.9539Z" fill="#0F67FE"/>
<path d="M59.9176 35.7638V27.2384L60.5178 27.9652C59.9843 28.7851 59.241 29.4187 58.2882 29.8659C57.3354 30.2945 56.2968 30.5088 55.1724 30.5088C53.6669 30.5088 52.3234 30.1641 51.1419 29.4746C49.9604 28.7665 49.0266 27.8068 48.3406 26.5955C47.6545 25.3843 47.3115 24.0426 47.3115 22.5704C47.3115 21.0797 47.6545 19.738 48.3406 18.5454C49.0266 17.3527 49.9604 16.4024 51.1419 15.6943C52.3425 14.9861 53.6765 14.6321 55.1438 14.6321C56.3254 14.6321 57.3735 14.865 58.2882 15.3309C59.222 15.7781 59.9557 16.4117 60.4893 17.2316L60.1177 17.9863V14.9675H63.6622V35.7638H59.9176ZM55.5726 27.1546C56.4302 27.1546 57.1829 26.9589 57.8308 26.5676C58.4788 26.1762 58.9838 25.6358 59.3459 24.9464C59.727 24.2569 59.9176 23.4649 59.9176 22.5704C59.9176 21.6946 59.727 20.912 59.3459 20.2225C58.9838 19.5144 58.4788 18.9646 57.8308 18.5733C57.1829 18.182 56.4302 17.9863 55.5726 17.9863C54.7341 17.9863 53.9814 18.1913 53.3144 18.6013C52.6474 18.9926 52.1234 19.533 51.7422 20.2225C51.3801 20.8933 51.1991 21.676 51.1991 22.5704C51.1991 23.4649 51.3801 24.2569 51.7422 24.9464C52.1234 25.6358 52.6474 26.1762 53.3144 26.5676C53.9814 26.9589 54.7341 27.1546 55.5726 27.1546Z" fill="white"/>
<path d="M74.1208 30.5088C72.9202 30.5088 71.8721 30.2479 70.9764 29.7261C70.0998 29.2044 69.4233 28.4776 68.9469 27.5459C68.4895 26.6142 68.2608 25.524 68.2608 24.2755V14.9675H72.0055V23.968C72.0055 24.6016 72.1294 25.1607 72.3771 25.6452C72.6439 26.111 73.0155 26.4837 73.4919 26.7632C73.9874 27.0241 74.54 27.1546 75.1499 27.1546C75.7597 27.1546 76.3028 27.0241 76.7792 26.7632C77.2556 26.4837 77.6272 26.1017 77.894 25.6172C78.1608 25.1327 78.2942 24.555 78.2942 23.8842V14.9675H82.0389V30.1734H78.4943V27.1825L78.8087 27.7136C78.4467 28.6453 77.8464 29.3441 77.0079 29.81C76.1884 30.2759 75.2261 30.5088 74.1208 30.5088Z" fill="white"/>
<path d="M91.6656 30.5088C90.5793 30.5088 89.636 30.3318 88.8356 29.9777C88.0353 29.6236 87.4159 29.1205 86.9776 28.4683C86.5393 27.7975 86.3202 27.0241 86.3202 26.1483C86.3202 25.3097 86.5107 24.5643 86.8919 23.9121C87.273 23.2413 87.8637 22.6822 88.6641 22.235C89.4645 21.7878 90.4745 21.471 91.6942 21.2846L96.7823 20.474V23.2692L92.4088 23.996C91.6656 24.1264 91.1129 24.3594 90.7508 24.6948C90.3888 25.0302 90.2077 25.4681 90.2077 26.0085C90.2077 26.5303 90.4078 26.9496 90.808 27.2664C91.2273 27.5645 91.7418 27.7136 92.3516 27.7136C93.1329 27.7136 93.819 27.5552 94.4097 27.2384C95.0196 26.903 95.4864 26.4464 95.8104 25.8688C96.1534 25.2911 96.3249 24.6575 96.3249 23.968V20.0548C96.3249 19.4026 96.0582 18.8621 95.5246 18.4335C95.01 17.9863 94.324 17.7627 93.4664 17.7627C92.666 17.7627 91.9514 17.977 91.3225 18.4056C90.7127 18.8156 90.2649 19.3653 89.979 20.0548L86.9204 18.6013C87.2253 17.8 87.7018 17.1105 88.3497 16.5328C89.0167 15.9365 89.798 15.4706 90.6937 15.1352C91.5893 14.7998 92.5612 14.6321 93.6094 14.6321C94.8862 14.6321 96.0105 14.865 96.9824 15.3309C97.9543 15.7781 98.707 16.4117 99.2406 17.2316C99.7933 18.0329 100.07 18.974 100.07 20.0548V30.1734H96.525V27.5738L97.3254 27.5179C96.9252 28.1701 96.4488 28.7199 95.8962 29.1671C95.3435 29.5957 94.7146 29.9311 94.0095 30.1734C93.3045 30.397 92.5231 30.5088 91.6656 30.5088Z" fill="white"/>
<path d="M104.96 30.1734V14.9675H108.476V18.3497L108.19 17.8466C108.552 16.7098 109.114 15.9179 109.877 15.4706C110.658 15.0234 111.592 14.7998 112.678 14.7998H113.593V18.0422H112.249C111.182 18.0422 110.324 18.3683 109.676 19.0205C109.028 19.6541 108.705 20.5486 108.705 21.7039V30.1734H104.96Z" fill="white"/>
<path d="M124.588 30.3411C122.835 30.3411 121.473 29.8752 120.501 28.9435C119.548 27.9931 119.072 26.6607 119.072 24.9464V18.2379H116.385V14.9675H116.67C117.433 14.9675 118.023 14.7718 118.443 14.3805C118.862 13.9892 119.072 13.4208 119.072 12.6754V11.5015H122.816V14.9675H126.389V18.2379H122.816V24.7507C122.816 25.2538 122.902 25.6824 123.073 26.0365C123.264 26.3905 123.55 26.6607 123.931 26.8471C124.331 27.0334 124.836 27.1266 125.446 27.1266C125.579 27.1266 125.732 27.1173 125.903 27.0987C126.094 27.08 126.275 27.0614 126.447 27.0428V30.1734C126.18 30.2106 125.875 30.2479 125.532 30.2852C125.189 30.3224 124.874 30.3411 124.588 30.3411Z" fill="white"/>
<path d="M129.393 30.1734V27.2105L138.426 16.98L138.998 18.2379H129.793V14.9675H142.314V17.9584L133.452 28.1888L132.881 26.9309H142.371V30.1734H129.393Z" fill="white"/>
<path d="M145.928 35.7638V14.9675H149.444V17.9863L149.101 17.2316C149.635 16.4117 150.359 15.7781 151.274 15.3309C152.188 14.865 153.246 14.6321 154.447 14.6321C155.914 14.6321 157.238 14.9861 158.42 15.6943C159.601 16.4024 160.535 17.3527 161.221 18.5454C161.926 19.738 162.279 21.0797 162.279 22.5704C162.279 24.0426 161.936 25.3843 161.25 26.5955C160.564 27.8068 159.63 28.7665 158.448 29.4746C157.267 30.1641 155.923 30.5088 154.418 30.5088C153.294 30.5088 152.255 30.2945 151.302 29.8659C150.368 29.4187 149.625 28.7851 149.073 27.9652L149.673 27.2384V35.7638H145.928ZM153.989 27.1546C154.847 27.1546 155.609 26.9589 156.276 26.5676C156.943 26.1762 157.457 25.6358 157.82 24.9464C158.201 24.2569 158.391 23.4649 158.391 22.5704C158.391 21.676 158.201 20.8933 157.82 20.2225C157.457 19.533 156.943 18.9926 156.276 18.6013C155.609 18.1913 154.847 17.9863 153.989 17.9863C153.17 17.9863 152.426 18.182 151.76 18.5733C151.112 18.9646 150.597 19.5144 150.216 20.2225C149.854 20.912 149.673 21.6946 149.673 22.5704C149.673 23.4649 149.854 24.2569 150.216 24.9464C150.597 25.6358 151.112 26.1762 151.76 26.5676C152.426 26.9589 153.17 27.1546 153.989 27.1546Z" fill="white"/>
<path d="M166.563 30.1734V14.9675H170.079V18.3497L169.793 17.8466C170.155 16.7098 170.717 15.9179 171.48 15.4706C172.261 15.0234 173.195 14.7998 174.281 14.7998H175.196V18.0422H173.852C172.785 18.0422 171.927 18.3683 171.28 19.0205C170.632 19.6541 170.308 20.5486 170.308 21.7039V30.1734H166.563Z" fill="white"/>
<path d="M186.287 30.5088C184.763 30.5088 183.372 30.1641 182.114 29.4746C180.875 28.7851 179.884 27.844 179.141 26.6514C178.417 25.4588 178.055 24.0985 178.055 22.5704C178.055 21.0424 178.417 19.6821 179.141 18.4895C179.884 17.2968 180.875 16.3558 182.114 15.6663C183.353 14.9768 184.744 14.6321 186.287 14.6321C187.812 14.6321 189.194 14.9768 190.432 15.6663C191.671 16.3558 192.652 17.2968 193.377 18.4895C194.12 19.6634 194.491 21.0238 194.491 22.5704C194.491 24.0985 194.12 25.4588 193.377 26.6514C192.633 27.844 191.642 28.7851 190.404 29.4746C189.165 30.1641 187.793 30.5088 186.287 30.5088ZM186.287 27.1546C187.126 27.1546 187.86 26.9589 188.488 26.5676C189.136 26.1762 189.641 25.6358 190.003 24.9464C190.385 24.2382 190.575 23.4463 190.575 22.5704C190.575 21.676 190.385 20.8933 190.003 20.2225C189.641 19.533 189.136 18.9926 188.488 18.6013C187.86 18.1913 187.126 17.9863 186.287 17.9863C185.43 17.9863 184.677 18.1913 184.029 18.6013C183.381 18.9926 182.867 19.533 182.486 20.2225C182.124 20.8933 181.942 21.676 181.942 22.5704C181.942 23.4463 182.124 24.2382 182.486 24.9464C182.867 25.6358 183.381 26.1762 184.029 26.5676C184.677 26.9589 185.43 27.1546 186.287 27.1546Z" fill="white"/>
<path d="M198.76 30.1734V14.9675H202.276V18.4895L201.876 17.9025C202.162 16.803 202.734 15.9831 203.591 15.4427C204.449 14.9023 205.459 14.6321 206.621 14.6321C207.898 14.6321 209.022 14.9582 209.994 15.6104C210.966 16.2626 211.595 17.1198 211.881 18.182L210.823 18.2658C211.3 17.0546 212.014 16.1508 212.967 15.5545C213.92 14.9396 215.016 14.6321 216.254 14.6321C217.36 14.6321 218.341 14.8743 219.199 15.3588C220.075 15.8433 220.761 16.5235 221.257 17.3993C221.752 18.2565 222 19.2535 222 20.3902V30.1734H218.255V21.2567C218.255 20.5858 218.132 20.0082 217.884 19.5237C217.636 19.0392 217.293 18.6665 216.855 18.4056C216.416 18.1261 215.883 17.9863 215.254 17.9863C214.663 17.9863 214.139 18.1261 213.682 18.4056C213.224 18.6665 212.872 19.0392 212.624 19.5237C212.376 20.0082 212.253 20.5858 212.253 21.2567V30.1734H208.508V21.2567C208.508 20.5858 208.384 20.0082 208.136 19.5237C207.889 19.0392 207.536 18.6665 207.079 18.4056C206.64 18.1261 206.116 17.9863 205.506 17.9863C204.916 17.9863 204.392 18.1261 203.934 18.4056C203.477 18.6665 203.124 19.0392 202.877 19.5237C202.629 20.0082 202.505 20.5858 202.505 21.2567V30.1734H198.76Z" fill="white"/>
</svg>

<svg width="222" height="43" fill="none" xmlns="http://www.w3.org/2000/svg"><path d="M40.002 19.972v-1.044C39.622 8.25 30.66.583 19.912.583 8.942.583 0 9.546 0 20.543 0 31.537 8.941 40.5 19.912 40.5c5.326 0 10.146-2.098 13.729-5.498l6.39 7.967-.03-21.208c.033-.382 0-.78 0-1.193v-.597Zm-20.09 13.982c-7.356 0-13.349-6.007-13.349-13.38 0-7.373 5.993-13.38 13.349-13.38s13.348 6.007 13.348 13.38c0 7.373-5.992 13.38-13.348 13.38Z" fill="#0F67FE"/><path d="M59.918 35.764v-8.526l.6.727c-.534.82-1.277 1.454-2.23 1.9-.953.43-1.991.644-3.116.644-1.505 0-2.849-.345-4.03-1.034a7.75 7.75 0 0 1-2.801-2.88c-.687-1.21-1.03-2.552-1.03-4.025 0-1.49.343-2.832 1.03-4.025a7.814 7.814 0 0 1 2.8-2.85c1.202-.709 2.535-1.063 4.003-1.063 1.181 0 2.23.233 3.144.699.934.447 1.668 1.08 2.201 1.9l-.371.755v-3.019h3.544v20.797h-3.744Zm-4.345-8.61c.857 0 1.61-.195 2.258-.586a4.057 4.057 0 0 0 1.515-1.622c.381-.69.572-1.481.572-2.376 0-.875-.191-1.658-.572-2.348a4.014 4.014 0 0 0-1.515-1.649c-.648-.391-1.4-.587-2.258-.587-.839 0-1.592.205-2.259.615a4.196 4.196 0 0 0-1.572 1.622c-.362.67-.543 1.453-.543 2.347 0 .895.181 1.687.543 2.376.381.69.905 1.23 1.572 1.622.667.39 1.42.587 2.259.587Zm18.547 3.355c-1.2 0-2.248-.261-3.144-.783a5.275 5.275 0 0 1-2.03-2.18c-.456-.932-.685-2.022-.685-3.27v-9.309h3.745v9.001c0 .634.123 1.193.371 1.677a3.02 3.02 0 0 0 1.115 1.118 3.5 3.5 0 0 0 1.658.392c.61 0 1.153-.13 1.63-.392.476-.28.847-.661 1.114-1.146.267-.484.4-1.062.4-1.733v-8.917h3.745v15.206h-3.545v-2.99l.315.53c-.362.932-.963 1.631-1.801 2.097-.82.466-1.782.699-2.887.699Zm17.546 0c-1.087 0-2.03-.177-2.83-.531-.8-.354-1.42-.858-1.858-1.51-.439-.67-.658-1.444-.658-2.32 0-.838.19-1.584.572-2.236.381-.67.972-1.23 1.772-1.677.8-.447 1.81-.764 3.03-.95l5.088-.811v2.795l-4.373.727c-.743.13-1.296.363-1.658.699-.362.335-.543.773-.543 1.314 0 .521.2.94.6 1.257.42.299.934.448 1.544.448.78 0 1.467-.159 2.058-.476a3.499 3.499 0 0 0 1.4-1.37 3.655 3.655 0 0 0 .515-1.9v-3.913c0-.652-.267-1.193-.8-1.622-.515-.447-1.201-.67-2.059-.67-.8 0-1.515.214-2.143.643a3.61 3.61 0 0 0-1.344 1.649L86.92 18.6a5.225 5.225 0 0 1 1.43-2.068 7.337 7.337 0 0 1 2.344-1.398c.895-.335 1.867-.503 2.915-.503 1.277 0 2.401.233 3.373.699.972.447 1.725 1.08 2.259 1.9.552.802.829 1.743.829 2.824v10.118h-3.545v-2.6l.8-.055a6.41 6.41 0 0 1-1.429 1.65 6.498 6.498 0 0 1-1.886 1.005c-.706.224-1.487.336-2.344.336Zm13.294-.336V14.968h3.516v3.382l-.286-.503c.362-1.137.924-1.93 1.687-2.376.781-.448 1.715-.671 2.801-.671h.915v3.242h-1.344c-1.067 0-1.925.326-2.573.978-.648.634-.971 1.529-.971 2.684v8.47h-3.745Zm19.628.168c-1.753 0-3.115-.466-4.087-1.398-.953-.95-1.429-2.282-1.429-3.997v-6.708h-2.687v-3.27h.285c.763 0 1.353-.196 1.773-.588.419-.39.629-.96.629-1.705v-1.174h3.744v3.466h3.573v3.27h-3.573v6.514c0 .503.086.931.257 1.285.191.354.477.625.858.811.4.186.905.28 1.515.28.133 0 .286-.01.457-.028l.544-.056v3.13c-.267.038-.572.075-.915.112a8.815 8.815 0 0 1-.944.056Zm4.805-.168v-2.962l9.033-10.231.572 1.258h-9.205v-3.27h12.521v2.99l-8.862 10.23-.571-1.257h9.49v3.242h-12.978Zm16.535 5.591V14.967h3.516v3.02l-.343-.755a5.327 5.327 0 0 1 2.173-1.901c.914-.466 1.972-.699 3.173-.699 1.467 0 2.791.354 3.973 1.062a7.817 7.817 0 0 1 2.801 2.851c.705 1.193 1.058 2.535 1.058 4.025 0 1.473-.343 2.814-1.029 4.026a7.749 7.749 0 0 1-2.802 2.879c-1.181.69-2.525 1.034-4.03 1.034-1.124 0-2.163-.215-3.116-.643-.934-.447-1.677-1.08-2.229-1.9l.6-.728v8.526h-3.745Zm8.061-8.61c.858 0 1.62-.195 2.287-.586a4.005 4.005 0 0 0 1.544-1.622c.381-.69.571-1.481.571-2.376 0-.894-.19-1.677-.571-2.348a4.004 4.004 0 0 0-1.544-1.62c-.667-.41-1.429-.616-2.287-.616a4.32 4.32 0 0 0-2.229.587 4.211 4.211 0 0 0-1.544 1.65c-.362.689-.543 1.472-.543 2.347 0 .895.181 1.687.543 2.376.381.69.896 1.23 1.544 1.622a4.32 4.32 0 0 0 2.229.587Zm12.574 3.019V14.968h3.516v3.382l-.286-.503c.362-1.137.924-1.93 1.687-2.376.781-.448 1.715-.671 2.801-.671h.915v3.242h-1.344c-1.067 0-1.925.326-2.572.978-.648.634-.972 1.529-.972 2.684v8.47h-3.745Zm19.724.336c-1.524 0-2.915-.345-4.173-1.034a8.065 8.065 0 0 1-2.973-2.824c-.724-1.192-1.086-2.552-1.086-4.08 0-1.529.362-2.889 1.086-4.082a8.064 8.064 0 0 1 2.973-2.823c1.239-.69 2.63-1.034 4.173-1.034 1.525 0 2.907.345 4.145 1.034a7.851 7.851 0 0 1 2.945 2.823c.743 1.174 1.114 2.535 1.114 4.081 0 1.529-.371 2.889-1.114 4.081a8.08 8.08 0 0 1-2.973 2.824c-1.239.69-2.611 1.034-4.117 1.034Zm0-3.354c.839 0 1.573-.196 2.201-.587a4.056 4.056 0 0 0 1.515-1.622c.382-.708.572-1.5.572-2.376 0-.894-.19-1.677-.572-2.348a4.055 4.055 0 0 0-1.515-1.62c-.628-.41-1.362-.616-2.201-.616-.857 0-1.61.205-2.258.615a4.26 4.26 0 0 0-1.543 1.622c-.362.67-.544 1.453-.544 2.347 0 .876.182 1.668.544 2.376a4.26 4.26 0 0 0 1.543 1.622c.648.39 1.401.587 2.258.587Zm12.473 3.018V14.968h3.516v3.521l-.4-.587c.286-1.099.858-1.919 1.715-2.46.858-.54 1.868-.81 3.03-.81 1.277 0 2.401.326 3.373.978.972.653 1.601 1.51 1.887 2.572l-1.058.084c.477-1.211 1.191-2.115 2.144-2.711.953-.615 2.049-.923 3.287-.923 1.106 0 2.087.242 2.945.727a5.235 5.235 0 0 1 2.058 2.04c.495.857.743 1.854.743 2.991v9.783h-3.745v-8.916c0-.671-.123-1.249-.371-1.733a2.697 2.697 0 0 0-1.029-1.118c-.439-.28-.972-.42-1.601-.42-.591 0-1.115.14-1.572.42-.458.26-.81.633-1.058 1.118-.248.484-.371 1.062-.371 1.733v8.916h-3.745v-8.916c0-.671-.124-1.249-.372-1.733a2.634 2.634 0 0 0-1.057-1.118c-.439-.28-.963-.42-1.573-.42-.59 0-1.114.14-1.572.42-.457.26-.81.633-1.057 1.118-.248.484-.372 1.062-.372 1.733v8.916h-3.745Z" fill="#fff"/></svg>
